X: 112
M: C
L: 1/8
K: Gm
(G/A/B/c/) dG (B/c/d)(GB) | Afcf AFcA | (G/A/B/c/) dg fcdB | AFcA BG-G :|
(B/c/d/e/ f)d bdfd | cfAc (FA/B/c)A | (B/c/d/e/ f)b fBdB | cFAc d(GGA) |


